carceropolis/static/images/carceropolis-logo-vermelho.svg

<?xml version="1.0" encoding="UTF-8" standalone="no"?>
<svg width="200px" height="35px" viewBox="0 0 200 35" version="1.1" xmlns="http://www.w3.org/2000/svg" xmlns:xlink="http://www.w3.org/1999/xlink">
    <!-- Generator: Sketch 3.6.1 (26313) - http://www.bohemiancoding.com/sketch -->
    <title>carceropolis-logo-branco</title>
    <desc>Created with Sketch.</desc>
    <defs></defs>
    <g id="Stickersheet" stroke="none" stroke-width="1" fill="none" fill-rule="evenodd">
        <g id="-DESK-HOME" transform="translate(-30.000000, -23.000000)" fill="#9C0009">
            <g id="Menu">
                <g id="carceropolis-logo-branco" transform="translate(30.000000, 23.000000)">
                    <path d="M16.6095267,14.8575375 C16.6095267,11.6476304 15.0684366,10.9990474 13.588562,10.9990474 C12.1399373,10.9990474 10.5988472,11.8015242 10.5988472,14.3019767 L10.5988472,22.0189569 C10.5988472,24.5811384 12.1399373,25.3527507 13.588562,25.3527507 C15.5615854,25.3527507 16.6095267,24.3955227 16.6095267,21.2160514 L16.6095267,20.9386997 L20.8325416,20.9386997 C20.8325416,26.4947368 18.4896566,29.4272922 13.588562,29.4272922 C9.3351533,29.4272922 6.37583222,26.3399857 6.37583222,21.8954989 L6.37583222,14.4254346 C6.37583222,10.0118123 9.3351533,6.92450583 13.588562,6.92450583 C18.3976193,6.92450583 20.8325416,10.1039771 20.8325416,15.1666111 L16.6095267,15.1666111 L16.6095267,14.8575375" id="Fill-1"></path>
                    <path d="M28.2593117,21.123458 L32.7289011,21.123458 L30.5405531,12.6044296 L28.2593117,21.123458 L28.2593117,21.123458 Z M33.6227333,24.7971898 L27.3654794,24.7971898 L26.1938229,29.0877828 L21.9095924,29.0877828 L28.2284899,7.3261729 L32.8213665,7.3261729 L39.0482267,29.0877828 L34.76314,29.0877828 L33.6227333,24.7971898 L33.6227333,24.7971898 Z" id="Fill-2"></path>
                    <path d="M45.2113028,11.4007145 L45.2113028,19.4263396 L47.3076135,19.4263396 C49.1569216,19.4263396 50.8521207,18.6234342 50.8521207,15.7526078 L50.8521207,15.1357466 C50.8521207,12.1414623 49.2185652,11.4007145 47.3076135,11.4007145 L45.2113028,11.4007145 L45.2113028,11.4007145 Z M40.9882879,29.0877828 L40.9882879,7.3261729 L47.831156,7.3261729 C52.1466364,7.3261729 55.0443139,10.1352703 55.0443139,15.1970469 L55.0443139,15.8147654 C55.0443139,19.178995 53.5956892,21.4325316 51.284054,22.4819243 L54.9210266,29.0877828 L50.2973283,29.0877828 L47.4000789,23.469588 L45.2113028,23.469588 L45.2113028,29.0877828 L40.9882879,29.0877828 L40.9882879,29.0877828 Z" id="Fill-3"></path>
                    <path d="M67.7420401,14.8575375 C67.7420401,11.6476304 66.20095,10.9990474 64.7210755,10.9990474 C63.2728788,10.9990474 61.7313607,11.8015242 61.7313607,14.3019767 L61.7313607,22.0189569 C61.7313607,24.5811384 63.2728788,25.3527507 64.7210755,25.3527507 C66.6940989,25.3527507 67.7420401,24.3955227 67.7420401,21.2160514 L67.7420401,20.9386997 L71.9650551,20.9386997 C71.9650551,26.4947368 69.6225981,29.4272922 64.7210755,29.4272922 C60.4676668,29.4272922 57.5087738,26.3399857 57.5087738,21.8954989 L57.5087738,14.4254346 C57.5087738,10.0118123 60.4676668,6.92450583 64.7210755,6.92450583 C69.5301327,6.92450583 71.9650551,10.1039771 71.9650551,15.1666111 L67.7420401,15.1666111 L67.7420401,14.8575375" id="Fill-4"></path>
                    <path d="M86.9752727,11.4315789 L79.114857,11.4315789 L79.114857,16.3703263 L84.9410338,16.3703263 L84.9410338,20.0740653 L79.114857,20.0740653 L79.114857,25.0132412 L86.9752727,25.0132412 L86.9752727,29.0877828 L74.8918421,29.0877828 L74.8918421,7.3261729 L86.9752727,7.3261729 L86.9752727,11.4315789" id="Fill-5"></path>
                    <path d="M94.3403992,11.4007145 L94.3403992,19.4263396 L96.4362817,19.4263396 C98.2860179,19.4263396 99.981217,18.6234342 99.981217,15.7526078 L99.981217,15.1357466 C99.981217,12.1414623 98.3472334,11.4007145 96.4362817,11.4007145 L94.3403992,11.4007145 L94.3403992,11.4007145 Z M90.1173842,29.0877828 L90.1173842,7.3261729 L96.9602523,7.3261729 C101.275733,7.3261729 104.17341,10.1352703 104.17341,15.1970469 L104.17341,15.8147654 C104.17341,19.178995 102.724785,21.4325316 100.412722,22.4819243 L104.050123,29.0877828 L99.4264246,29.0877828 L96.5287471,23.469588 L94.3403992,23.469588 L94.3403992,29.0877828 L90.1173842,29.0877828 L90.1173842,29.0877828 Z" id="Fill-6"></path>
                    <path d="M111.939648,4.98004287 L113.881422,0.134317695 L118.228152,0.134317695 L115.021828,4.98004287 L111.939648,4.98004287 L111.939648,4.98004287 Z M116.871565,22.0498214 L116.871565,14.3332698 C116.871565,11.8945463 115.453762,10.9990474 113.8506,10.9990474 C112.371153,10.9990474 110.860885,11.8015242 110.860885,14.3019767 L110.860885,22.0189569 C110.860885,24.4576804 112.278688,25.3214575 113.8506,25.3214575 C115.299653,25.3214575 116.871565,24.5502739 116.871565,22.0498214 L116.871565,22.0498214 Z M106.63787,21.8954989 L106.63787,14.4871636 C106.63787,10.0426768 109.597191,6.92450583 113.8506,6.92450583 C118.104865,6.92450583 121.09458,10.0426768 121.09458,14.4871636 L121.09458,21.8954989 C121.09458,26.3095499 118.104865,29.395999 113.8506,29.395999 C109.597191,29.395999 106.63787,26.3095499 106.63787,21.8954989 L106.63787,21.8954989 Z" id="Fill-7"></path>
                    <path d="M128.367241,11.4007145 L128.367241,19.8580138 L130.463551,19.8580138 C132.312859,19.8580138 134.03888,18.9942367 134.03888,16.0616814 L134.03888,15.2592046 C134.03888,12.0488688 132.250788,11.4007145 130.463551,11.4007145 L128.367241,11.4007145 L128.367241,11.4007145 Z M124.144226,29.0877828 L124.144226,7.3261729 L130.894628,7.3261729 C135.148465,7.3261729 138.200252,10.1352703 138.200252,15.2283401 L138.200252,16.0925458 C138.200252,21.2160514 135.148465,23.9016909 130.894628,23.9016909 L128.367241,23.9016909 L128.367241,29.0877828 L124.144226,29.0877828 L124.144226,29.0877828 Z" id="Fill-8"></path>
                    <path d="M150.898406,22.0498214 L150.898406,14.3332698 C150.898406,11.8945463 149.480603,10.9990474 147.877441,10.9990474 C146.397995,10.9990474 144.887726,11.8015242 144.887726,14.3019767 L144.887726,22.0189569 C144.887726,24.4576804 146.305529,25.3214575 147.877441,25.3214575 C149.326494,25.3214575 150.898406,24.5502739 150.898406,22.0498214 L150.898406,22.0498214 Z M140.66514,21.8954989 L140.66514,14.4871636 C140.66514,10.0426768 143.624033,6.92450583 147.877441,6.92450583 C152.131706,6.92450583 155.121421,10.0426768 155.121421,14.4871636 L155.121421,21.8954989 C155.121421,26.3095499 152.131706,29.395999 147.877441,29.395999 C143.624033,29.395999 140.66514,26.3095499 140.66514,21.8954989 L140.66514,21.8954989 Z" id="Fill-9"></path>
                    <path d="M169.730099,29.0877828 L158.355998,29.0877828 L158.355998,7.3261729 L162.579013,7.3261729 L162.579013,25.0132412 L169.730099,25.0132412 L169.730099,29.0877828" id="Fill-10"></path>
                    <path d="M172.257059,29.0877828 L176.480074,29.0877828 L176.480074,7.3261729 L172.257059,7.3261729 L172.257059,29.0877828 Z" id="Fill-11"></path>
                    <path d="M179.715079,13.3143129 C179.715079,9.33279352 182.520291,6.92450583 186.774127,6.92450583 C190.935071,6.92450583 193.802354,9.73360324 193.802354,14.2098119 L189.640983,14.2098119 C189.640983,11.8945463 188.53097,10.8142891 186.712484,10.8142891 C184.924391,10.8142891 183.907272,11.6784949 183.907272,13.3143129 C183.907272,17.6357704 194.079323,15.0735889 194.079323,22.8522982 C194.079323,26.9885687 191.151251,29.4581567 186.774127,29.4581567 C182.427825,29.4581567 179.43811,26.5873303 179.43811,21.9263634 L183.629876,21.9263634 C183.629876,24.4576804 184.924391,25.5070731 186.774127,25.5070731 C188.561792,25.5070731 189.856736,24.6737318 189.856736,22.8831627 C189.856736,18.7473208 179.715079,21.0312932 179.715079,13.3143129" id="Fill-12"></path>
                    <path d="M199.282642,34.9211717 L0.202910197,34.9211717 L0.202910197,1.02595856 L110.845902,1.02038581 L109.644708,4.02110026 L3.01582772,3.97051679 L3.01582772,31.9766135 L196.469725,31.9766135 L196.469725,3.97051679 L118.778664,3.96837342 L120.744838,1.02038581 L199.282642,1.02595856 L199.282642,34.9211717" id="Fill-13"></path>
                </g>
            </g>
        </g>
    </g>
</svg>

<svg xmlns="http://www.w3.org/2000/svg" width="200" height="35">
  <g fill="#9C0009" fill-rule="evenodd">
    <path d="M16.61 14.858c0-3.21-1.542-3.859-3.021-3.859-1.45 0-2.99.803-2.99 3.303v7.717c0 2.562 1.54 3.334 2.99 3.334 1.973 0 3.02-.957 3.02-4.137v-.277h4.224c0 5.556-2.343 8.488-7.244 8.488-4.254 0-7.213-3.087-7.213-7.532v-7.47c0-4.413 2.96-7.5 7.213-7.5 4.809 0 7.244 3.179 7.244 8.242H16.61v-.31m11.65 6.266h4.469l-2.188-8.519-2.282 8.52zm5.363 3.674h-6.258l-1.171 4.29H21.91l6.318-21.76h4.593l6.227 21.76h-4.285l-1.14-4.29zM45.211 11.4v8.026h2.097c1.849 0 3.544-.803 3.544-3.673v-.617c0-2.995-1.633-3.735-3.544-3.735H45.21zm-4.223 17.688V7.326h6.843c4.316 0 7.213 2.81 7.213 7.871v.618c0 3.364-1.448 5.618-3.76 6.667l3.637 6.606h-4.624L47.4 23.47h-2.189v5.618h-4.223zm26.754-14.23c0-3.21-1.541-3.859-3.02-3.859-1.45 0-2.99.803-2.99 3.303v7.717c0 2.562 1.54 3.334 2.99 3.334 1.972 0 3.02-.957 3.02-4.137v-.277h4.223c0 5.556-2.342 8.488-7.244 8.488-4.253 0-7.212-3.087-7.212-7.532v-7.47c0-4.413 2.959-7.5 7.212-7.5 4.81 0 7.244 3.179 7.244 8.242h-4.223v-.31m19.233-3.425h-7.86v4.938h5.826v3.704h-5.826v4.94h7.86v4.074H74.892V7.326h12.083v4.106m7.365-.032v8.026h2.096c1.85 0 3.545-.803 3.545-3.673v-.617c0-2.995-1.634-3.735-3.545-3.735H94.34zm-4.223 17.688V7.326h6.843c4.316 0 7.213 2.81 7.213 7.871v.618c0 3.364-1.448 5.618-3.76 6.667l3.637 6.606h-4.624L96.53 23.47h-2.19v5.618h-4.223zM111.94 4.98l1.94-4.846h4.347l-3.206 4.846h-3.082zm4.932 17.07v-7.717c0-2.438-1.418-3.334-3.021-3.334-1.48 0-2.99.803-2.99 3.303v7.717c0 2.439 1.418 3.302 2.99 3.302 1.449 0 3.02-.77 3.02-3.271zm-10.234-.155v-7.408c0-4.444 2.96-7.562 7.213-7.562 4.254 0 7.244 3.118 7.244 7.562v7.408c0 4.415-2.99 7.501-7.244 7.501s-7.213-3.086-7.213-7.5zM128.367 11.4v8.458h2.097c1.849 0 3.575-.864 3.575-3.796v-.803c0-3.21-1.788-3.858-3.575-3.858h-2.097zm-4.223 17.688V7.326h6.75c4.254 0 7.306 2.81 7.306 7.902v.865c0 5.123-3.052 7.809-7.305 7.809h-2.528v5.186h-4.223zm26.754-7.038v-7.717c0-2.438-1.417-3.334-3.02-3.334-1.48 0-2.99.803-2.99 3.303v7.717c0 2.439 1.418 3.302 2.99 3.302 1.448 0 3.02-.77 3.02-3.271zm-10.233-.155v-7.408c0-4.444 2.959-7.562 7.212-7.562 4.255 0 7.244 3.118 7.244 7.562v7.408c0 4.415-2.99 7.501-7.244 7.501-4.253 0-7.212-3.086-7.212-7.5zm29.065 7.193h-11.374V7.326h4.223v17.687h7.151v4.075m2.527 0h4.223V7.326h-4.223v21.762zm7.458-15.774c0-3.981 2.805-6.39 7.06-6.39 4.16 0 7.027 2.81 7.027 7.286h-4.161c0-2.315-1.11-3.396-2.929-3.396-1.788 0-2.805.864-2.805 2.5 0 4.322 10.172 1.76 10.172 9.538 0 4.137-2.928 6.606-7.305 6.606-4.346 0-7.336-2.87-7.336-7.532h4.192c0 2.532 1.294 3.581 3.144 3.581 1.788 0 3.083-.833 3.083-2.624 0-4.136-10.142-1.852-10.142-9.569"/>
    <path d="M199.283 34.921H.203V1.026l110.643-.006-1.201 3.001-106.63-.05v28.006H196.47V3.97l-77.691-.003 1.966-2.948 78.538.006V34.92"/>
  </g>
</svg>
